!!!SOCIAL_FUNCTION:	songs of war
!!!PDT:	1913
!!!OTL: No_52_Song_Before_the_Boys'_Fight.krn
!!!REG: Great_Lakes
!!!LANG: Non-Tone
!!!LING_GROUP: Algonquin
**kern
*staff1
*clefF4
*k[b-]
*M2/4
16f\
=1
8.f\L
16d\Jk
8.d\L
16d\Jk
=2
8.d\L
16d\Jk
8d\L
16.d\L
32d\JJk
=3
8.c\L
16d\Jk
4d\
=4||
*M3/4
8B-\L
16.G\L
32G\JJk
4B-\
12d\L
12B-\
24G\L
24G\JJ
=5
8.F\L
16D\Jk
[4D\
8D\L]
8D\J
=6||
*M2/4
4B-\
16G\LL
16G\
16.G\
32G\JJk
=7
8.F\L
16D\Jk
4D\
=8
8.F\L
32D\LL
32D\JJJ
8.D\L
16D\Jk
=9
8.D\L
16D\Jk
4D\
==
*-
